X: 11
T: Acemaşîrân Aranağme (Curcuna)
C: ?
O: Turkey
F: http://compmusic.upf.edu/node/140
N: acemasiran--aranagme--curcuna--1--
N: makam= acemasiran
N: form= aranagme
N: usul= curcuna = 10/8
M: 10/8
L: 1/16
K: C _B   
Q: 1/4=204
%%MIDI tuningsystem comma53
f4 f2f4f2 g2e4d2  | d4 e2{f}e2 d2c2 _2/4B2{d}c6  | \
w:  ARANAĞME  |   | 
c2_2/4B2 c2d2 B2c2 d2e2 d2c2  | 
w:   | 
f2g2 a2{b}a2 g2f2 e2f4z2  | f4 e2d4e4d2 c4  | \
w:   |   | 
d4 c2B4A4d6  | A2B2 c2d4c2 B2A4G2  | 
w:   |   | 
G4 A2{B}A2 G2F2 E2F4z2  | f4 f2f4f2 g2e4d2  | \
w:   |  ARANAĞME  | 
d4 e2{f}e2 d2c2 _2/4B2{d}c6  | 
w:   | 
c2_2/4B2 c2d2 B2c2 d2e2 d2c2  | f2g2 a2{b}a2 g2f2 e2f4z2  | \
w:   |   | 
f4 e2d4e4d2 c4  | 
w:   | 
d4 c2B4A4d6  | A2B2 c2d4c2 B2A4G2  | \
w:   |   | 
G4 A2{B}A2 G2F2 E2F4z2  | 
w:   | 
|


